images/icon3.svg

<svg width="69" height="69" viewBox="0 0 69 69" fill="none" xmlns="http://www.w3.org/2000/svg">
<path fill-rule="evenodd" clip-rule="evenodd" d="M34.5 69C53.5538 69 69 53.5538 69 34.5C69 15.4462 53.5538 0 34.5 0C15.4462 0 0 15.4462 0 34.5C0 53.5538 15.4462 69 34.5 69Z" fill="#5454D4" fill-opacity="0.1"/>
<path d="M43.6667 20H26.3333C24.4933 20.0022 23.0022 21.4608 23 23.2609V49.3478C23 49.5817 23.1281 49.7978 23.3357 49.9139C23.5432 50.0301 23.7985 50.0286 24.0047 49.91L35 43.5826L45.9953 49.9087C46.2013 50.0272 46.4563 50.0288 46.6638 49.913C46.8713 49.7971 46.9995 49.5815 47 49.3478V23.2609C46.9978 21.4608 45.5067 20.0022 43.6667 20Z" fill="#5454D4"/>
</svg>

<svg width="69" height="69" fill="none" xmlns="http://www.w3.org/2000/svg"><path fill-rule="evenodd" clip-rule="evenodd" d="M34.5 69C53.554 69 69 53.554 69 34.5 69 15.446 53.554 0 34.5 0 15.446 0 0 15.446 0 34.5 0 53.554 15.446 69 34.5 69z" fill="#5454D4" fill-opacity=".1"/><path d="M43.667 20H26.333c-1.84.002-3.33 1.46-3.333 3.26v26.088c0 .234.128.45.336.566a.68.68 0 00.669-.004L35 43.583l10.995 6.326a.68.68 0 00.669.004.65.65 0 00.336-.565V23.26c-.002-1.8-1.493-3.259-3.333-3.261z" fill="#5454D4"/></svg>
